X: 81
T:Holy Virgin Mary, lovely lily stalk
B:Balint Sarosi, Gypsy Music
M:none
L:1/8
Q:1/4=50
K:EPhr
AA  Bc   BA (AG3)|BA GF      E4 |
AA  Bc   BA (AG) |BA GF      E4 |
ED (AB)  G4      |ED A(A/B/) G4 |
AB (cB) (Ac)     |BA G6         |\
                  BA GF      E4|]


Transpositions of Phrygian mode scales:

